img/logo.svg

<svg width="40" height="40" viewBox="0 0 40 40" fill="none" xmlns="http://www.w3.org/2000/svg">
<g clip-path="url(#clip0_3093_502448)">
<path d="M5.77789 20.9927C6.98382 21.8697 8.35055 22.8638 10.9996 22.8638C13.6486 22.8638 15.0155 21.8698 16.2213 20.9927C17.298 20.2096 18.1485 19.5911 19.9994 19.5911C21.8504 19.5911 22.7009 20.2096 23.7777 20.9927C24.9837 21.8698 26.3506 22.8638 28.9997 22.8638C31.6488 22.8638 33.0158 21.8698 34.2217 20.9927C35.2985 20.2096 36.149 19.5911 38 19.5911L38 17.1365C35.3509 17.1365 33.984 18.1305 32.7781 19.0076C31.7013 19.7907 30.8508 20.4092 28.9997 20.4092C27.1487 20.4092 26.2982 19.7907 25.2213 19.0076C24.0154 18.1305 22.6485 17.1365 19.9994 17.1365C17.3503 17.1365 15.9835 18.1305 14.7777 19.0076C13.701 19.7907 12.8505 20.4092 10.9996 20.4092C9.14874 20.4092 8.29824 19.7907 7.22155 19.0076C6.01569 18.1305 4.64895 17.1365 2 17.1365L2 19.5911C3.85069 19.5911 4.7012 20.2096 5.77789 20.9927Z" fill="#00A6ED"/>
<path d="M5.77789 12.8106C6.98382 13.6876 8.35055 14.6816 10.9996 14.6816C13.6486 14.6816 15.0155 13.6876 16.2213 12.8106C17.298 12.0275 18.1485 11.4089 19.9994 11.4089C21.8504 11.4089 22.7009 12.0275 23.7777 12.8106C24.9837 13.6876 26.3506 14.6816 28.9997 14.6816C31.6488 14.6816 33.0158 13.6876 34.2217 12.8106C35.2985 12.0275 36.149 11.4089 38 11.4089L38 8.9544C35.3509 8.95441 33.984 9.94841 32.7781 10.8255C31.7013 11.6086 30.8508 12.2271 28.9997 12.2271C27.1487 12.2271 26.2982 11.6086 25.2213 10.8255C24.0154 9.94841 22.6485 8.95441 19.9994 8.95441C17.3503 8.95441 15.9835 9.94841 14.7777 10.8255C13.701 11.6086 12.8505 12.2271 10.9996 12.2271C9.14874 12.2271 8.29824 11.6086 7.22155 10.8255C6.01569 9.94842 4.64895 8.95441 2 8.95441L2 11.4089C3.85069 11.4089 4.7012 12.0275 5.77789 12.8106Z" fill="white"/>
<path d="M5.77789 29.1743C6.98382 30.0513 8.35055 31.0454 10.9996 31.0454C13.6486 31.0454 15.0155 30.0514 16.2213 29.1743C17.298 28.3913 18.1485 27.7727 19.9994 27.7727C21.8504 27.7727 22.7009 28.3913 23.7777 29.1743C24.9837 30.0514 26.3506 31.0454 28.9997 31.0454C31.6488 31.0454 33.0158 30.0514 34.2217 29.1743C35.2985 28.3913 36.149 27.7726 38 27.7726L38 25.3181C35.3509 25.3181 33.984 26.3121 32.7781 27.1892C31.7013 27.9723 30.8508 28.5908 28.9997 28.5908C27.1487 28.5908 26.2982 27.9723 25.2213 27.1892C24.0154 26.3121 22.6485 25.3181 19.9994 25.3181C17.3503 25.3181 15.9835 26.3121 14.7777 27.1892C13.701 27.9723 12.8505 28.5908 10.9996 28.5908C9.14874 28.5908 8.29824 27.9723 7.22155 27.1892C6.01569 26.3121 4.64895 25.3181 2 25.3181L2 27.7726C3.85069 27.7726 4.7012 28.3913 5.77789 29.1743Z" fill="white"/>
</g>
<defs>
<clipPath id="clip0_3093_502448">
<rect width="36" height="36" fill="white" transform="translate(38 38) rotate(180)"/>
</clipPath>
</defs>
</svg>

<svg width="40" height="40" fill="none" xmlns="http://www.w3.org/2000/svg"><g clip-path="url(#clip0_3093_502448)"><path d="M5.778 20.993c1.206.877 2.573 1.87 5.222 1.87 2.649 0 4.015-.993 5.221-1.87 1.077-.783 1.927-1.402 3.778-1.402s2.702.619 3.779 1.402c1.206.877 2.573 1.87 5.222 1.87 2.649 0 4.016-.993 5.222-1.87 1.076-.783 1.927-1.402 3.778-1.402v-2.454c-2.65 0-4.016.994-5.222 1.87-1.077.784-1.927 1.402-3.778 1.402s-2.702-.618-3.779-1.401c-1.206-.877-2.573-1.871-5.222-1.871-2.649 0-4.015.994-5.221 1.87C13.7 19.792 12.85 20.41 11 20.41c-1.851 0-2.702-.618-3.778-1.401C6.016 18.13 4.649 17.137 2 17.137v2.454c1.85 0 2.701.619 3.778 1.402z" fill="#00A6ED"/><path d="M5.778 12.81c1.206.878 2.573 1.872 5.222 1.872 2.649 0 4.015-.994 5.221-1.871 1.077-.784 1.927-1.402 3.778-1.402s2.702.618 3.779 1.402c1.206.877 2.573 1.87 5.222 1.87 2.649 0 4.016-.993 5.222-1.87 1.076-.784 1.927-1.402 3.778-1.402V8.954c-2.65 0-4.016.994-5.222 1.871-1.077.784-1.927 1.402-3.778 1.402s-2.702-.618-3.779-1.402c-1.206-.877-2.573-1.87-5.222-1.87-2.649 0-4.015.993-5.221 1.87-1.077.784-1.928 1.402-3.778 1.402-1.851 0-2.702-.618-3.778-1.402C6.016 9.948 4.649 8.956 2 8.956v2.454c1.85 0 2.701.618 3.778 1.402zm0 16.364c1.206.877 2.573 1.871 5.222 1.871 2.649 0 4.015-.994 5.221-1.87 1.077-.784 1.927-1.402 3.778-1.402s2.702.618 3.779 1.401c1.206.877 2.573 1.871 5.222 1.871 2.649 0 4.016-.994 5.222-1.87 1.076-.784 1.927-1.402 3.778-1.402v-2.455c-2.65 0-4.016.994-5.222 1.871-1.077.783-1.927 1.402-3.778 1.402s-2.702-.619-3.779-1.402c-1.206-.877-2.573-1.87-5.222-1.87-2.649 0-4.015.993-5.221 1.87-1.077.783-1.928 1.402-3.778 1.402-1.851 0-2.702-.619-3.778-1.402-1.206-.877-2.573-1.87-5.222-1.87v2.454c1.85 0 2.701.618 3.778 1.401z" fill="#fff"/></g><defs><clipPath id="clip0_3093_502448"><path fill="#fff" transform="rotate(180 19 19)" d="M0 0h36v36H0z"/></clipPath></defs></svg>
